Yaru++/actions/16/image-filter.svg

<svg height="16" width="16" xmlns="http://www.w3.org/2000/svg"><g fill="#808080"><path d="m2.02441 2.00002v12h12v-6c-.352802.9172845-.005 1.4333525-.99316 2.06248-.466901-.4542647-.852781-1.0792425-1-2.0625h-1c-.3125 1.28125-.176451 2.56109-1 3.96875h-2c-2-3-2-5-3-8-.3166274.9498821-.843991 1.9386651-1.375 2.90625-1.0407237-2.3038813-.2961883-4.4316259-.63184-4.87498z"/><path d="m.03125 0v16h16v-16zm1 1h14v14h-14z"/></g></svg>

<svg xmlns="http://www.w3.org/2000/svg" width="16" height="16" version="1.1">
 <g transform="translate(-31.97559,-220.36218)">
  <path style="fill:#808080" d="m 2.02441,2.00002 0,12 12,0 0,-6 c -0.352802,0.9172845 -0.005,1.4333525 -0.99316,2.06248 -0.466901,-0.4542647 -0.852781,-1.0792425 -1,-2.0625 l -1,0 c -0.3125,1.28125 -0.176451,2.56109 -1,3.96875 l -2,0 c -2,-3 -2,-5 -3,-8 C 4.7146226,4.9186321 4.187259,5.9074151 3.65625,6.875 2.6155263,4.5711187 3.3600617,2.4433741 3.02441,2.00002 z" transform="translate(31.97559,220.36218)"/>
  <path style="fill:#808080" d="M 0.03125 0 L 0.03125 16 L 16.03125 16 L 16.03125 0 L 0.03125 0 z M 1.03125 1 L 15.03125 1 L 15.03125 15 L 1.03125 15 L 1.03125 1 z" transform="translate(31.97559,220.36218)"/>
 </g>
</svg>
